svgs/thin/virus.svg

<svg xmlns="http://www.w3.org/2000/svg" viewBox="0 0 512 512"><!--! Font Awesome Pro 6.1.1 by @fontawesome - https://fontawesome.com License - https://fontawesome.com/license (Commercial License) Copyright 2022 Fonticons, Inc. --><path d="M425.7 86.29C419.5 80.05 409.3 80.05 403.1 86.29L394.9 94.46C349.6 139.8 272 107.7 272 43.55V31.1C272 23.16 264.8 15.1 255.1 15.1C247.2 15.1 239.1 23.16 239.1 31.1V43.55C239.1 107.7 162.4 139.8 117.1 94.46L108.9 86.29C102.7 80.05 92.54 80.05 86.29 86.29C80.05 92.54 80.05 102.7 86.29 108.9L94.46 117.1C139.8 162.4 107.7 239.1 43.55 239.1H31.1C23.16 239.1 15.1 247.2 15.1 255.1C15.1 264.8 23.16 271.1 31.1 271.1H43.55C107.7 271.1 139.8 349.6 94.46 394.9L86.29 403.1C80.05 409.3 80.05 419.5 86.29 425.7C92.54 431.1 102.7 431.1 108.9 425.7L117.1 417.5C162.4 372.2 239.1 404.3 239.1 468.5V480C239.1 488.8 247.2 496 255.1 496C264.8 496 272 488.8 272 480V468.5C272 404.3 349.6 372.2 394.9 417.5L403.1 425.7C409.3 431.1 419.5 431.1 425.7 425.7C431.1 419.5 431.1 409.3 425.7 403.1L417.5 394.9C372.2 349.6 404.3 272 468.5 272H480C488.8 272 496 264.8 496 256C496 247.2 488.8 240 480 240H468.5C404.3 240 372.2 162.4 417.5 117.1L425.7 108.9C431.1 102.7 431.1 92.54 425.7 86.29L437 74.98C449.5 87.48 449.5 107.7 437 120.2L428.9 128.4C393.6 163.7 418.6 224 468.5 224H480C497.7 224 512 238.3 512 256C512 273.7 497.7 288 480 288H468.5C418.6 288 393.6 348.3 428.9 383.6L437 391.8C449.5 404.3 449.5 424.5 437 437C424.5 449.5 404.3 449.5 391.8 437L383.6 428.9C348.3 393.6 288 418.6 288 468.5V480C288 497.7 273.7 512 256 512C238.3 512 224 497.7 224 480V468.5C224 418.6 163.7 393.6 128.4 428.9L120.2 437C107.7 449.5 87.48 449.5 74.98 437C62.48 424.5 62.48 404.3 74.98 391.8L83.15 383.6C118.4 348.3 93.44 288 43.55 288H32C14.33 288 0 273.7 0 256C0 238.3 14.33 224 32 224H43.55C93.44 224 118.4 163.7 83.15 128.4L74.98 120.2C62.48 107.7 62.48 87.48 74.98 74.98C87.48 62.48 107.7 62.48 120.2 74.98L128.4 83.15C163.7 118.4 224 93.44 224 43.55V32C224 14.33 238.3 0 256 0C273.7 0 288 14.33 288 32V43.55C288 93.44 348.3 118.4 383.6 83.15L391.8 74.98C404.3 62.48 424.5 62.48 437 74.98L425.7 86.29zM175.1 223.1C175.1 197.5 197.5 175.1 223.1 175.1C250.5 175.1 272 197.5 272 223.1C272 250.5 250.5 271.1 223.1 271.1C197.5 271.1 175.1 250.5 175.1 223.1zM223.1 255.1C241.7 255.1 255.1 241.7 255.1 223.1C255.1 206.3 241.7 191.1 223.1 191.1C206.3 191.1 191.1 206.3 191.1 223.1C191.1 241.7 206.3 255.1 223.1 255.1zM288 303.1C288 295.2 295.2 287.1 304 287.1C312.8 287.1 320 295.2 320 303.1C320 312.8 312.8 319.1 304 319.1C295.2 319.1 288 312.8 288 303.1z"/></svg>

<svg xmlns="http://www.w3.org/2000/svg" viewBox="0 0 512 512"><!--! Font Awesome Pro 6.5.1 by @fontawesome - https://fontawesome.com License - https://fontawesome.com/license (Commercial License) Copyright 2023 Fonticons, Inc. --><path d="M425.7 86.3c-6.2-6.2-16.4-6.2-22.6 0l-8.2 8.2C349.6 139.8 272 107.7 272 43.5V32c0-8.8-7.2-16-16-16s-16 7.2-16 16V43.5c0 64.1-77.6 96.3-122.9 50.9l-8.2-8.2c-6.2-6.2-16.4-6.2-22.6 0s-6.2 16.4 0 22.6l8.2 8.2C139.8 162.4 107.7 240 43.5 240H32c-8.8 0-16 7.2-16 16s7.2 16 16 16H43.5c64.1 0 96.3 77.6 50.9 122.9l-8.2 8.2c-6.2 6.2-6.2 16.4 0 22.6s16.4 6.2 22.6 0l8.2-8.2C162.4 372.2 240 404.3 240 468.5V480c0 8.8 7.2 16 16 16s16-7.2 16-16V468.5c0-64.1 77.6-96.3 122.9-50.9l8.2 8.2c6.2 6.2 16.4 6.2 22.6 0s6.2-16.4 0-22.6l-8.2-8.2C372.2 349.6 404.3 272 468.5 272H480c8.8 0 16-7.2 16-16s-7.2-16-16-16H468.5c-64.1 0-96.3-77.6-50.9-122.9l8.2-8.2c6.2-6.2 6.2-16.4 0-22.6L437 75c12.5 12.5 12.5 32.8 0 45.3l-8.2 8.2c-35.3 35.3-10.3 95.6 39.6 95.6H480c17.7 0 32 14.3 32 32s-14.3 32-32 32H468.5c-49.9 0-74.9 60.3-39.6 95.6l8.2 8.2c12.5 12.5 12.5 32.8 0 45.3s-32.8 12.5-45.3 0l-8.2-8.2c-35.3-35.3-95.6-10.3-95.6 39.6V480c0 17.7-14.3 32-32 32s-32-14.3-32-32V468.5c0-49.9-60.3-74.9-95.6-39.6l-8.2 8.2c-12.5 12.5-32.8 12.5-45.3 0s-12.5-32.8 0-45.3l8.2-8.2C118.4 348.3 93.4 288 43.5 288H32c-17.7 0-32-14.3-32-32s14.3-32 32-32H43.5c49.9 0 74.9-60.3 39.6-95.6L75 120.2C62.5 107.7 62.5 87.5 75 75s32.8-12.5 45.3 0l8.2 8.2C163.7 118.4 224 93.4 224 43.5V32c0-17.7 14.3-32 32-32s32 14.3 32 32V43.5c0 49.9 60.3 74.9 95.6 39.6l8.2-8.2c12.5-12.5 32.8-12.5 45.3 0L425.7 86.3zM224 256a32 32 0 1 0 0-64 32 32 0 1 0 0 64zm0-80a48 48 0 1 1 0 96 48 48 0 1 1 0-96zm80 112a16 16 0 1 1 0 32 16 16 0 1 1 0-32z"/></svg>
